X:58
T:The Marines Hymn
C:Offenbach(?)
C:Arr. C. French, C.Myers
M:2/4
L:1/4
Q:1/4=100
K:A
V:1
%%MIDI channel 1
%%MIDI program 72
%%MIDI transpose 8
%%MIDI grace 1/8
%%MIDI ratio 3 1
A/c/|:e e|e e|e>a|e c/d/|e e|d<B|[1 A2-|A A/c/:|[2 A2-|A a/g/|
f d|f a|e>f|e a/g/|f d|f<a|e2-|e/z/ A/c/|e e|e e|
e>a|e c/d/|e e|d<B|A2-|A/z/||
V:2
%%MIDI channel 1
%%MIDI program 72
%%MIDI transpose 8
%%MIDI grace 1/8
%%MIDI ratio 3 1
!p!E|:A B|c A|c d|c A|c>d|e d|[1 c2-|c E:|[2 c2-|c c|
d>c|B d|c B|A c|d>c|B d|e d|c E|A B|c A|
c d|c A|c>d|e d|c2-|c/z/||

